icon-themes/sifr_svg/cmd/sc_framelinecolor.svg

<svg viewBox="0 0 16 16" xmlns="http://www.w3.org/2000/svg"><path d="m1 0c-.554 0-1 .446-1 1v8c0 .554.446 1 1 1h14c.554 0 1-.446 1-1v-8c0-.554-.446-1-1-1zm1 2h12v6h-12z" fill="#555753"/></svg>

<svg xmlns="http://www.w3.org/2000/svg" viewBox="0 0 16 16">
  <path
     style="fill:#555753"
     d="M 1 0 C 0.446 0 0 0.446 0 1 L 0 9 C 0 9.554 0.446 10 1 10 L 15 10 C 15.554 10 16 9.554 16 9 L 16 1 C 16 0.446 15.554 0 15 0 L 1 0 z M 2 2 L 14 2 L 14 8 L 2 8 L 2 2 z "
     />
</svg>
